X:13
T:Keppel's Delight THO4.013
M:6/8
L:1/8
Z:vmp. Peter Dunk 2010/11.from a transcription by Fynn Titford-Mock 2007
B:Thompson's Compleat Collection of 200 Favourite Country Dances Volume IV.
Q:3/8=110
K:A
c2 d edc|fga fga|fed cBA|GBG GFE|c2 d edc|fga fga|fed cdB|A3A,3:|
|:BEE cEE|dEE cEE|BEE cEE|BEE EEE|BEE cEE|dEE cEE|Bdc BAG|A3A,3:|
